X:464
T: VROU NACHTIGALL KLEINS VUEGELIN
N: E0413C
O: Europa, Mitteleuropa, Deutschland, Niederrhein, Niederkruechten
N: modulierend, plagaler Schluss ?
R: Liebes - Lied
M: 4/4
L: 1/4
K: D
A, | DEFG | FED
A, | DEFG | FED
F | D2CB, | B,2A,
A, | DDEE | AEF
F | ECB,

